X: 36367
T: Sean McGuire's Dream
R: reel
M: 4/4
K: Dmajor
|:FEDE FGAB|cedc BE (3EDE|FEDE FGAd|cAGE FDD2|
FEDE FGAF|(3GFE FD EA, (3A,A,A,|(3dcB cA DFAF|EFGA FDD2:|
|:fedc defg|(3efg fd eA (3AAA|fedc defg|eage fddg|fgfe defg|
egfd eAA2|1 FGAd cdeg|fdec d2 (3gfe:|2 FGAF GBdB|AFGE FDD2||

